Papirus-GTK/24x24/apps/alexandra.svg

<svg height="24" viewBox="0 0 48 48" width="24" xmlns="http://www.w3.org/2000/svg"><path d="m14 4c-5.5228 0-10 4.4772-10 10 .0048 2.7597 1.1498626 5.39475 3.1640624 7.28125-.1034098.27172-.1640624.568618-.1640624.886718v5.832032c-1.1046 0-2 .89543-2 2 0 1.10457.89543 2 2 2v5.828124c0 1.203002.82365 2.171876 1.84375 2.171876h6.671875l-2.296875 2.484376c-.623.673998.152437 1.515624 1.398438 1.515624h7.382812 7.378906c.913 0 1.649094-.469062 1.621094-1.039062-.008-.167-.08475-.331566-.21875-.476562l-2.296874-2.484376h6.671874c1.02 0 1.84375-.964968 1.84375-2.167968v-5.359376l1.492188.921876 3.992188 2.460936c.673998.416 1.515624-.102592 1.515624-.933592v-4.921876-4.921876c0-.608-.470062-1.096124-1.039062-1.078124-.16695.0055-.331972.0552-.476562.144532l-3.988282 2.460936-1.496094.91797v-5.351562c0-.316002-.058156-.612814-.160156-.882814 2.015-1.887999 3.157156-4.528062 3.160156-7.289062 0-5.5228-4.477-10-10-10-3.15.0048-6.112094 1.4953312-7.996094 4.0195312-1.885-2.5253-4.852906-4.0160312-8.003906-4.0195312z" fill="#11ab66"/><path d="m14 9c-3.29952 0-6 2.70048-6 6 0 3.29952 2.70048 6 6 6 3.29952 0 6-2.70048 6-6 0-3.29952-2.70048-6-6-6zm16 0c-3.29952 0-6 2.70048-6 6 0 3.29952 2.70048 6 6 6 3.29952 0 6-2.70048 6-6 0-3.29952-2.70048-6-6-6zm-16 2c2.224933 0 4 1.775067 4 4 0 2.224933-1.775067 4-4 4-2.224933 0-4-1.775067-4-4 0-2.224933 1.775067-4 4-4zm16 0c2.224934 0 4 1.775067 4 4 0 2.224933-1.775066 4-4 4-2.224932 0-4-1.775067-4-4 0-2.224933 1.775066-4 4-4z" opacity=".2"/><path d="m7 4c-1.64976 0-3 1.35024-3 3 0 1.64976 1.35024 3 3 3 1.64976 0 3-1.35024 3-3 0-1.64976-1.35024-3-3-3zm8 0c-1.64976 0-3 1.35024-3 3 0 1.64976 1.35024 3 3 3 1.64976 0 3-1.35024 3-3 0-1.64976-1.35024-3-3-3zm-8 1c1.1124665 0 2 .8875335 2 2 0 1.1124665-.8875335 2-2 2-1.1124665 0-2-.8875335-2-2 0-1.1124665.8875335-2 2-2zm8 0c1.112467 0 2 .8875335 2 2 0 1.1124665-.887533 2-2 2-1.112466 0-2-.8875335-2-2 0-1.1124665.887533-2 2-2z" fill="#fff" transform="scale(2)"/><path d="m7 2c-2.7614 0-5 2.2386-5 5 .0001415.0813359.0095963.1613486.0136719.2421875.1349153-2.6408917 2.3118953-4.7421875 4.9863281-4.7421875 1.5755.00175 3.059453.7471156 4.001953 2.0097656.942-1.2621 2.423047-2.0073656 3.998047-2.0097656 2.67453 0 4.851419 2.1012958 4.986328 4.7421875.004019-.0808893.013584-.1608133.013672-.2421875 0-2.7614-2.2385-5-5-5-1.575.0024-3.056047.7476656-3.998047 2.0097656-.9425-1.26265-2.426453-2.0080156-4.001953-2.0097656zm-3.4960938 9.060547c-.000167.008321-.0039062.015057-.0039062.023437v.5c0-.15905.0303264-.307499.0820312-.443359-.0273342-.025601-.0514337-.053932-.078125-.080078zm14.9921878.003906c-.026384.025846-.049158.054767-.076172.080078.051.135.080078.283405.080078.441407v-.5c0-.007691-.003769-.01384-.003906-.021485zm2.984375.935547c-.083475.00275-.165986.0276-.238281.072266l-1.994141 1.230468-.748047.458985v.5l.748047-.458985 1.994141-1.230468c.072295-.044666.154806-.069516.238281-.072266.2845-.009.519531.235062.519531.539062v-.5c0-.304-.235031-.548062-.519531-.539062zm-17.980469 2c-.5523 0-1 .447715-1 1 0 .088846.0290369.167995.0507812.25.11342-.427755.4857672-.75.9492188-.75zm3.7949219 6.5l-.6855469.742188c-.1544884.167134-.1348389.355145-.0019531.501953.0006772-.000741.0012691-.001214.0019531-.001953l1.1484375-1.242188zm6.9472661 0l1.144531 1.236328c.068976-.076817.117934-.161134.113281-.255859-.004-.0835-.042375-.165784-.109375-.238281l-.685547-.742188z" fill="#fff" opacity=".2" transform="scale(2)"/><path d="m2.0136719 6.7421875c-.0043872.0858765-.0136719.1708453-.0136719.2578125.0023349 1.3423988.5471871 2.6233563 1.5039062 3.560547.0030039-.149606.0291445-.29122.078125-.419922-.9477359-.8876497-1.5032927-2.1078578-1.5683593-3.3984375zm17.9726561 0c-.064166 1.2913855-.618294 2.5139887-1.566406 3.4023435.048517.128429.073495.270509.076172.419922.957617-.9380916 1.502446-2.2209681 1.503906-3.564453 0-.0869672-.009285-.171936-.013672-.2578125zm-17.4355468 8.0078125c-.0217437.082005-.0507812.161154-.0507812.25 0 .552285.447715 1 1 1v-.5c-.463439 0-.8357957-.322245-.9492188-.75zm15.9492188.986328v.5l.746094.460938 1.996094 1.230468c.336999.208.757812-.051297.757812-.466796v-.5c0 .415499-.420813.674796-.757812.466796l-1.996094-1.230468zm-15 2.677734v.5c0 .601501.411825 1.085938.921875 1.085938h2.8730469l.4628906-.5h-3.3359375c-.51005 0-.921875-.484437-.921875-1.085938zm15 .001954c0 .6015-.411875 1.083984-.921875 1.083984h-3.335937l.46289.5h2.873047c.51 0 .921875-.482484.921875-1.083984zm-3.113281 2.820312c-.138553.154301-.392493.263672-.697266.263672h-3.689453-3.6914062c-.3140235 0-.5661158-.106654-.7011719-.255859-.3077543.336623.0795393.755859.7011719.755859h3.6914062 3.689453c.4565 0 .824547-.234531.810547-.519531-.004-.0835-.042375-.165784-.109375-.238281z" opacity=".3" transform="scale(2)"/></svg>

<?xml version="1.0" encoding="UTF-8" standalone="no"?>
<!-- Created with Inkscape (http://www.inkscape.org/) -->

<svg
   xmlns:dc="http://purl.org/dc/elements/1.1/"
   xmlns:cc="http://creativecommons.org/ns#"
   xmlns:rdf="http://www.w3.org/1999/02/22-rdf-syntax-ns#"
   xmlns:svg="http://www.w3.org/2000/svg"
   xmlns="http://www.w3.org/2000/svg"
   xmlns:sodipodi="http://sodipodi.sourceforge.net/DTD/sodipodi-0.dtd"
   xmlns:inkscape="http://www.inkscape.org/namespaces/inkscape"
   id="svg2"
   height="24"
   viewBox="0 0 48 48"
   width="24"
   version="1.1"
   inkscape:version="0.91 r13725"
   sodipodi:docname="alexandra.svg">
  <defs
     id="defs9" />
  <sodipodi:namedview
     pagecolor="#ffffff"
     bordercolor="#666666"
     borderopacity="1"
     objecttolerance="10"
     gridtolerance="10"
     guidetolerance="10"
     inkscape:pageopacity="0"
     inkscape:pageshadow="2"
     inkscape:window-width="1600"
     inkscape:window-height="849"
     id="namedview7"
     showgrid="false"
     inkscape:zoom="19.88"
     inkscape:cx="10.78448"
     inkscape:cy="12"
     inkscape:window-x="0"
     inkscape:window-y="0"
     inkscape:window-maximized="1"
     inkscape:current-layer="svg2" />
  <metadata
     id="metadata8">
    <rdf:RDF>
      <cc:Work
         rdf:about="">
        <dc:format>image/svg+xml</dc:format>
        <dc:type
           rdf:resource="http://purl.org/dc/dcmitype/StillImage" />
        <dc:title />
      </cc:Work>
    </rdf:RDF>
  </metadata>
  <g
     id="g4160">
    <path
       id="path4143"
       d="M 14,4 C 8.4772,4 4,8.4772 4,14 4.0048,16.7597 5.1498626,19.39475 7.1640624,21.28125 7.0606526,21.55297 7,21.849868 7,22.167968 L 7,28 c -1.1046,0 -2,0.89543 -2,2 0,1.10457 0.89543,2 2,2 l 0,5.828124 C 7,39.031126 7.82365,40 8.84375,40 l 6.671875,0 -2.296875,2.484376 C 12.59575,43.158374 13.371187,44 14.617188,44 L 22,44 29.378906,44 C 30.291906,44 31.028,43.530938 31,42.960938 c -0.008,-0.167 -0.08475,-0.331566 -0.21875,-0.476562 L 28.484376,40 35.15625,40 C 36.17625,40 37,39.035032 37,37.832032 l 0,-5.359376 1.492188,0.921876 3.992188,2.460936 C 43.158374,36.271468 44,35.752876 44,34.921876 L 44,30 44,25.078124 C 44,24.470124 43.529938,23.982 42.960938,24 c -0.16695,0.0055 -0.331972,0.0552 -0.476562,0.144532 L 38.496094,26.605468 37,27.523438 37,22.171876 C 37,21.855874 36.941844,21.559062 36.839844,21.289062 38.854844,19.401063 39.997,16.761 40,14 40,8.4772 35.523,4 30,4 26.85,4.0048 23.887906,5.4953312 22.003906,8.0195312 20.118906,5.4942312 17.151,4.0035 14,4 Z"
       style="fill:#11ab66;fill-opacity:1" />
    <path
       inkscape:connector-curvature="0"
       style="opacity:0.2;fill:#000000;fill-opacity:1"
       d="m 14,9 c -3.29952,0 -6,2.70048 -6,6 0,3.29952 2.70048,6 6,6 3.29952,0 6,-2.70048 6,-6 0,-3.29952 -2.70048,-6 -6,-6 z m 16,0 c -3.29952,0 -6,2.70048 -6,6 0,3.29952 2.70048,6 6,6 3.29952,0 6,-2.70048 6,-6 0,-3.29952 -2.70048,-6 -6,-6 z m -16,2 c 2.224933,0 4,1.775067 4,4 0,2.224933 -1.775067,4 -4,4 -2.224933,0 -4,-1.775067 -4,-4 0,-2.224933 1.775067,-4 4,-4 z m 16,0 c 2.224934,0 4,1.775067 4,4 0,2.224933 -1.775066,4 -4,4 -2.224932,0 -4,-1.775067 -4,-4 0,-2.224933 1.775066,-4 4,-4 z"
       id="path4148" />
    <path
       id="path4141"
       transform="scale(2,2)"
       d="M 7 4 C 5.35024 4 4 5.35024 4 7 C 4 8.64976 5.35024 10 7 10 C 8.64976 10 10 8.64976 10 7 C 10 5.35024 8.64976 4 7 4 z M 15 4 C 13.35024 4 12 5.35024 12 7 C 12 8.64976 13.35024 10 15 10 C 16.64976 10 18 8.64976 18 7 C 18 5.35024 16.64976 4 15 4 z M 7 5 C 8.1124665 5 9 5.8875335 9 7 C 9 8.1124665 8.1124665 9 7 9 C 5.8875335 9 5 8.1124665 5 7 C 5 5.8875335 5.8875335 5 7 5 z M 15 5 C 16.112467 5 17 5.8875335 17 7 C 17 8.1124665 16.112467 9 15 9 C 13.887534 9 13 8.1124665 13 7 C 13 5.8875335 13.887533 5 15 5 z "
       style="fill:#ffffff;fill-opacity:1" />
    <path
       id="path4150"
       transform="scale(2,2)"
       d="M 7 2 C 4.2386 2 2 4.2386 2 7 C 2.0001415 7.0813359 2.0095963 7.1613486 2.0136719 7.2421875 C 2.1485872 4.6012958 4.3255672 2.5 7 2.5 C 8.5755 2.50175 10.059453 3.2471156 11.001953 4.5097656 C 11.943953 3.2476656 13.425 2.5024 15 2.5 C 17.67453 2.5 19.851419 4.6012958 19.986328 7.2421875 C 19.990347 7.1612982 19.999912 7.0813742 20 7 C 20 4.2386 17.7615 2 15 2 C 13.425 2.0024 11.943953 2.7476656 11.001953 4.0097656 C 10.059453 2.7471156 8.5755 2.00175 7 2 z M 3.5039062 11.060547 C 3.5037392 11.068868 3.5 11.075604 3.5 11.083984 L 3.5 11.583984 C 3.5 11.424934 3.5303264 11.276485 3.5820312 11.140625 C 3.554697 11.115024 3.5305975 11.086693 3.5039062 11.060547 z M 18.496094 11.064453 C 18.46971 11.090299 18.446936 11.11922 18.419922 11.144531 C 18.470922 11.279531 18.5 11.427936 18.5 11.585938 L 18.5 11.085938 C 18.5 11.078247 18.496231 11.072098 18.496094 11.064453 z M 21.480469 12 C 21.396994 12.00275 21.314483 12.0276 21.242188 12.072266 L 19.248047 13.302734 L 18.5 13.761719 L 18.5 14.261719 L 19.248047 13.802734 L 21.242188 12.572266 C 21.314483 12.5276 21.396994 12.50275 21.480469 12.5 C 21.764969 12.491 22 12.735062 22 13.039062 L 22 12.539062 C 22 12.235062 21.764969 11.991 21.480469 12 z M 3.5 14 C 2.9477 14 2.5 14.447715 2.5 15 C 2.5 15.088846 2.5290369 15.167995 2.5507812 15.25 C 2.6642012 14.822245 3.0365484 14.5 3.5 14.5 L 3.5 14 z M 7.2949219 20.5 L 6.609375 21.242188 C 6.4548866 21.409322 6.4745361 21.597333 6.6074219 21.744141 C 6.6080991 21.7434 6.608691 21.742927 6.609375 21.742188 L 7.7578125 20.5 L 7.2949219 20.5 z M 14.242188 20.5 L 15.386719 21.736328 C 15.455695 21.659511 15.504653 21.575194 15.5 21.480469 C 15.496 21.396969 15.457625 21.314685 15.390625 21.242188 L 14.705078 20.5 L 14.242188 20.5 z "
       style="fill:#ffffff;fill-opacity:1;opacity:0.2" />
    <path
       id="path4155"
       transform="scale(2,2)"
       d="M 2.0136719 6.7421875 C 2.0092847 6.828064 2 6.9130328 2 7 C 2.0023349 8.3423988 2.5471871 9.6233563 3.5039062 10.560547 C 3.5069101 10.410941 3.5330507 10.269327 3.5820312 10.140625 C 2.6342953 9.2529753 2.0787385 8.0327672 2.0136719 6.7421875 z M 19.986328 6.7421875 C 19.922162 8.033573 19.368034 9.2561762 18.419922 10.144531 C 18.468439 10.27296 18.493417 10.41504 18.496094 10.564453 C 19.453711 9.6263614 19.99854 8.3434849 20 7 C 20 6.9130328 19.990715 6.828064 19.986328 6.7421875 z M 2.5507812 14.75 C 2.5290375 14.832005 2.5 14.911154 2.5 15 C 2.5 15.552285 2.947715 16 3.5 16 L 3.5 15.5 C 3.036561 15.5 2.6642043 15.177755 2.5507812 14.75 z M 18.5 15.736328 L 18.5 16.236328 L 19.246094 16.697266 L 21.242188 17.927734 C 21.579187 18.135734 22 17.876437 22 17.460938 L 22 16.960938 C 22 17.376437 21.579187 17.635734 21.242188 17.427734 L 19.246094 16.197266 L 18.5 15.736328 z M 3.5 18.414062 L 3.5 18.914062 C 3.5 19.515563 3.911825 20 4.421875 20 L 7.2949219 20 L 7.7578125 19.5 L 4.421875 19.5 C 3.911825 19.5 3.5 19.015563 3.5 18.414062 z M 18.5 18.416016 C 18.5 19.017516 18.088125 19.5 17.578125 19.5 L 14.242188 19.5 L 14.705078 20 L 17.578125 20 C 18.088125 20 18.5 19.517516 18.5 18.916016 L 18.5 18.416016 z M 15.386719 21.236328 C 15.248166 21.390629 14.994226 21.5 14.689453 21.5 L 11 21.5 L 7.3085938 21.5 C 6.9945703 21.5 6.742478 21.393346 6.6074219 21.244141 C 6.2996676 21.580764 6.6869612 22 7.3085938 22 L 11 22 L 14.689453 22 C 15.145953 22 15.514 21.765469 15.5 21.480469 C 15.496 21.396969 15.457625 21.314685 15.390625 21.242188 L 15.386719 21.236328 z "
       style="fill:#000000;fill-opacity:1;opacity:0.3" />
  </g>
</svg>
